!!!OTL: ES WOHNTE EIN MEISTER ZU FRANKFURT
!!!ARE: Europa, Mitteleuropa, Deutschland, Ober - Hessen, Nassau
!!!SCT: E1619
!!!YEM: Copyright 1995, estate of Helmut Schaffrath.
**kern
*ICvox
*Ivox
*M2/4
*k[f#]
*G:
{8d
=1
4g
8f#
8e
=2
8e
8d
8d}
{8d
=3
8e
8g
8f#
8a
=4
4a
8g}
{8d
=5
4g
8f#
8e
=6
8e
8d
8d}
{8d
=7
8e
8g
8f#
8a
=8
4a
8g}
{16g
16a
=9
8b
8b
8b
8b
=10
4b
8a}
{8b
=11
8cc
8cc
8dd
8b
=12
4a
8r}
{8f#
=13
8a
8a
8a
8a
=14
8a
8dd
8dd}
{8cc
=15
8b
8b
8a
8a
=16
4g
8r}
==
!!!AGN: Staende -, Handwerker -, Gesellen - Lied
!!!ONB: ESAC (Essen Associative Code) Database: ERK3
!!!AMT: simple duple
!!!AIN: vox
!!!EED: Helmut Schaffrath
!!!EEV: 1.0
*-
